X: 14
T:Bumpus o'Stretton, Ilmington
M:6/8
L:1/8
A:Ilmington
P:A(AB2)4A
K:F
P:A
|:C|F>ED C2A|B2A G2C|F>GA G>FE |C3 F2:|
P:B
z|F>Ac c2c|dfd c2c|F>Ac c>_Bc|A3 f3 |
F>Ac c2c|dfd c2C|F>GA G>FE |C3 F2||
